X:58
T:Capn. Commin's Ramble
M:6/8
L:1/8
B:Thompson's Compleat Collection of 200 Favourite Country Dances, vol. 2 (London, 1765)
Z:Transcribed and edited by Flynn Titford-Mock, 2007
Z:abc's:AK/Fiddler's Companion
K:G
GDG BGB | dBd g3 | ded dcB | ABA AFD | GDG BGB | dBd g3 | faf ge^c | d3 D3 :|
|: dBG ecA | dBG AFD | dBG efg | ABA AFD | dBG ecA | efg gfe | dcB BAG | DEF G3 :|

